build/images/SVG/1/confused.svg

<!-- Generated by IcoMoon.io -->
<svg version="1.1" xmlns="http://www.w3.org/2000/svg" width="32" height="32" viewBox="0 0 32 32">
<title>confused</title>
<path fill="#f89820" d="M27.314 4.686c-3.022-3.022-7.040-4.686-11.314-4.686s-8.292 1.664-11.314 4.686c-3.022 3.022-4.686 7.040-4.686 11.314s1.664 8.292 4.686 11.314c3.022 3.022 7.040 4.686 11.314 4.686s8.292-1.664 11.314-4.686c3.022-3.022 4.686-7.040 4.686-11.314s-1.664-8.292-4.686-11.314zM16 31.241c-8.404 0-15.241-6.837-15.241-15.241s6.837-15.242 15.241-15.242 15.242 6.837 15.242 15.242c0 8.404-6.837 15.241-15.242 15.241z"></path>
<path fill="#f89820" d="M11.815 11.589c0 0.847-0.687 1.534-1.534 1.534s-1.534-0.687-1.534-1.534c0-0.847 0.687-1.534 1.534-1.534s1.534 0.687 1.534 1.534z"></path>
<path fill="#f89820" d="M23.252 11.589c0 0.847-0.687 1.534-1.534 1.534s-1.534-0.687-1.534-1.534c0-0.847 0.687-1.534 1.534-1.534s1.534 0.687 1.534 1.534z"></path>
<path fill="#f89820" d="M17.832 22.169l-3.67-1.011-3.67 1.011-3.569-0.984-0.202 0.731 3.771 1.039 3.67-1.011 3.67 1.011 3.67-1.011 3.57 0.984 0.201-0.731-3.771-1.039z"></path>
</svg>

<svg xmlns="http://www.w3.org/2000/svg" width="32" height="32" viewBox="0 0 32 32"><title>confused</title><path fill="#f89820" d="M27.314 4.686C24.292 1.664 20.274 0 16 0S7.708 1.664 4.686 4.686C1.664 7.708 0 11.726 0 16s1.664 8.292 4.686 11.314C7.708 30.336 11.726 32 16 32s8.292-1.664 11.314-4.686C30.336 24.292 32 20.274 32 16s-1.664-8.292-4.686-11.314zM16 31.241C7.596 31.241.759 24.404.759 16S7.596.758 16 .758 31.242 7.595 31.242 16c0 8.404-6.837 15.241-15.242 15.241z"/><path fill="#f89820" d="M11.815 11.589a1.534 1.534 0 1 1-3.069 0 1.534 1.534 0 0 1 3.069 0zm11.437 0a1.534 1.534 0 1 1-3.069 0 1.534 1.534 0 0 1 3.069 0zm-5.42 10.58l-3.67-1.011-3.67 1.011-3.569-.984-.202.731 3.771 1.039 3.67-1.011 3.67 1.011 3.67-1.011 3.57.984.201-.731-3.771-1.039z"/></svg>
